!!!!SEGMENT: pl-wtm--r-2005_smietanski-emil-wladyslaw--styrienne-op-9.krn
!!!cenid: 18xx:1989
!!!COM: Śmietański, Emil Władysław
!!!COM-rismID: pe50041781
!!!CDT: 1845-1886
!!!CNT: Polish
!!!OTL: Styrienne op. 9
!!!PDT: 1864
!!!AGN: Secular
!!!OMD: Allegretto
!!!YEC: Copyright 2022 Narodowy Instytut Fryderyka Chopina (https://polishscores.org)
!!!YEM: License CC-BY-4.0 (https://creativecommons.org/licenses/by/4.0)
!!!SMS-siglum: PL-Wtm
!!!SMS-shelfmark: R 2005
!!!SMS-shelfwork: W
!!!SMS-variant:
!!!SMS-altvar:
!!!NIFC-rismSourceID: 1001112877
!!!NIFC-rismChildID: 1001112877
!!!NIFC-islandoraID: pl-wtm:29356
!!!URL-pdf-islandora: https://repozytorium.nifc.pl/islandora/object/pl-wtm%3A29356/datastream/PDF/view
!!!URL-scan: https://polish.musicsources.pl/pl/lokalizacje/galeria/rekopisy/6499 @EN{Scan on Polish Music Sources Website} @PL{Skany w portalu Dziedzictwo Muzyki Polskiej w otwartym dostępie}
!!!IIIF:
!!!ONB-nifc:
!!!system-decoration: {(s1,s2)}
!!!AIN: 1 empty 1 forte
!!!key:
**kern	**kern	**dynam
*part2	*part1	*
*staff2	*staff1	*
*Iempty	*Iforte	*
*	*I"Fortepian	*
*clefF4	*clefG2	*
*k[f#c#g#]	*k[f#c#g#]	*
*A:	*A:	*
*M3/4	*M3/4	*
=1	=1	=1
!	!LO:TX:b:i:t=legato	!
4r	(4e/	p
4AA/	8cc#/)	.
.	8r	.
4a\ 4c#\	4r	.
=2	=2	=2
4r	(4cc#/	.
4a\ 4c#\	8e/)	.
.	8r	.
4AA/	4r	.
=3	=3	=3
4BB/	(4e/	.
*clefG2	*	*
.	32qqg#/	.
4a/ 4d/	4f#/	.
4g#/ 4d/	4e/	.
*clefF4	*	*
=4	=4	=4
.	32qqg#/	.
4EE/	4f#/	.
4g#\ 4d\	4e/	.
4g#\ 4d\ 4G#\ 4C#\	4ee/)	.
=5	=5	=5
4r	(4e/	.
4AA/	8cc#/)	.
.	8r	.
4a\ 4c#\	4r	.
=6	=6	=6
4r	(4cc#/	.
4a\ 4c#\	8d#X/)	.
.	8r	.
4FF#/	4r	.
=7	=7	=7
4GG#/	4g#/ 4f#/	.
.	32qqb/	.
4d#X\ 4c#\ 4G#\	4a/ 4f#/	.
4d#\ 4B#X\ 4G#\	4g#/ 4f#/	.
!!LO:LB:g=original
=8	=8	=8
!	!LO:TX:b:i:t=rit.	!
4e#X\ 4C#\	8cc#/L	.
.	8b#X/J	.
4f#\ 4D\	8bn/L	.
.	8a/J	.
8A\L 8D\	8f#/L	.
8D#X\J	8fn/J	.
=9	=9	=9
!	!LO:TX:b:i:t=à tempo	!
!	!LO:TX:t=P:mixedbeam:problem	!
4G#\ 4E\	8e/L	.
.	8f#/	.
4EE/	8e/	.
.	8ee\	.
*clefG2	*	*
4g#/ 4e/ 4d/	8b\	.
.	8cc#\J	.
=10	=10	=10
4e/ 4c#/	8b\L	.
.	8a\	.
*clefF4	*	*
.	32qqg#/	.
4EE/	8f#\	.
.	8e\	.
*clefG2	*	*
4a/ 4e/ 4c#/	8ee\	.
.	8e\J	.
=11	=11	=11
4b/ 4e/ 4d/	8a\L	.
.	8g#\	.
*clefF4	*	*
.	32qqg#/	.
4EE/	8f#\	.
.	8e\	.
*clefG2	*	*
4g#/ 4e/ 4d/	8ee\	.
.	8e\J	.
=12	=12	=12
!LO:TX:t=P:problem=mixedbeam	!	!
8e/L 8c#/	8a\L	.
8ee\J 8cc#\	8aa\	.
8dd#X/L 8ccn/	8ff#\	.
8ccX/ 8a/	8dd#X\	.
8a/ 8f#/	8ccn\	.
8d#X/J 8cn/	8a\J	.
=13	=13	=13
4dn/ 4B/	8e/L	.
.	32qqg#/	.
.	8f#/	.
*clefF4	*	*
4EE/	8e/	.
.	8ee/	.
*clefG2	*	*
4g#/ 4e/ 4d/	8b/	.
.	8cc#/J	.
!!LO:LB:g=original
=14	=14	=14
4e/ 4c#/	8b/L	.
.	8a/J	.
!	!LO:TX:b:i:t=ritar.	!
.	32qqg#/	.
4ee/ 4cc#/ 4a/	8f#/L	.
.	8e/J	.
16dd#X/ 16ccn/ 16a/ 16e;/	16aa;\	.
16r	16r	.
8r	8r	.
=15	=15	=15
*^	*	*
*2\right	*	*	*
8cc#/L	2.e\	8aa\L 8ee\	pp
8b#X/	.	8gg#\ 8dd#X\	.
8bn/	.	8ggn\ 8ddn\	.
8a#X/	.	8ff#\ 8cc#\	.
8an/	.	8ffn\ 8ccn\	.
8g#/J	.	8ee\J 8b\	.
*v	*v	*	*
=16	=16	=16
8gn/L	8ee-X\L 8b-X\	.
8f#/	8dd\ 8a\	.
8e#X/	8cc#X\ 8g#X\	.
8en/	8ccn\ 8gn\	.
8d#X/	8bn\ 8f#\	.
8dn/J	8b-X\J 8fn\	.
*clefF4	*	*
=17	=17	=17
*^	*	*
8c#/L	2.E\	8a/L 8e/	.
!	!	!LO:TX:b:i:t=rit.	!
8cn/J	.	8f#/J 8d#X/	.
8c#X/L	.	8a/L 8e/	.
8cn/J	.	8f#/J 8d#/	.
8c#X/L	.	8a/L 8e/	.
8cn/J	.	8f#/J 8d#/	.
*v	*v	*	*
=18	=18	=18
4B\ 4E\	4a\ 4fn\ [4dn\	<
8e\	8ee\ 8g#\ 8d\]	[
8r	8r	.
4EE/	4r	.
=19	=19	=19
!	!LO:TX:b:i:t=à tempo	!
(4E\ 4AA\	8r	.
.	8aa\L 8ee\ 8cc#\	.
8c#\)	8aa\ 8ee\ 8cc#\	.
8r	8ee\ 8cc#\ 8a\	.
4r	8ee\ 8cc#\ 8a\	.
.	8cc#\J 8a\ 8e\	.
!!LO:LB:g=original
=20	=20	=20
(4c#\ 4AA\	8r	.
!	!LO:TX:b:i:t=marcato il tema&colon;-	!
.	8cc#/L 8a/ 8e/	.
8E\)	8cc#/ 8a/ 8e/	.
8r	8a/ 8e/ 8c#/	.
4r	8a/ 8e/ 8c#/	.
.	8e/J 8c#/ 8A/	.
=21	=21	=21
4E\ 4BB\	8r	.
.	8e/L 8d/ 8G#/	.
4F#\	8e/ 8d/ 8G#/	.
.	8g#/ 8e/ 8d/	.
4E\	8g#/ 8e/ 8d/	.
.	8dd/J 8g#/ 8e/	<
=22	=22	=22
4F#/ 4EE/	8r	.
.	8dd\L 8g#\ 8e\	.
4E\	8dd\ 8g#\ 8e\	.
.	8ee\ 8dd\ 8g#\	.
4e\	8ee\ 8dd\ 8g#\	.
.	8gg#\J 8ee\ 8dd\	[
=23	=23	=23
(4E\ 4AA\	8r	.
.	8aa\L 8ee\ 8cc#\	.
8c#\)	8aa\ 8ee\ 8cc#\	.
8r	8ee\ 8cc#\ 8a\	.
4r	8ee\ 8cc#\ 8a\	.
.	8cc#\J 8a\ 8e\	.
=24	=24	=24
(4c#\ 4AA\	8r	.
.	8cc#/L 8a/ 8d#X/	.
8D#X\)	8cc#/ 8a/ 8d#/	.
8r	8a/ 8d#/ 8c#/	.
4r	8a/ 8d#/ 8c#/	.
.	8f#/J 8d#/ 8c#/	.
=25	=25	=25
4G#\ 4GG#\	8r	.
.	8g#/L 8f#/ 8B#X/	.
32qqB/	.	.
4A\	8g#/ 8f#/ 8B#/	.
.	8b#X/ 8g#/ 8f#/	.
4G#\	8b#/ 8g#/ 8f#/	.
.	8ff#/J 8b#/ 8g#/	.
!!LO:LB:g=original
=26	=26	=26
4A\ 4C#\	8r	.
.	8ee\L 8cc#\ 8g#\	.
4G#\	8ee\ 8cc#\ 8g#\	.
.	8gg#\ 8ee\ 8cc#\	.
4c#\	8gg#\ 8ee\ 8cc#\	.
.	8ccc#\J 8gg#\ 8ee\	.
=27	=27	=27
4E\ 4AA\	8r	.
.	8aa\L 8ee\ 8cc#\	.
8c#\	8aa\ 8ee\ 8cc#\	.
8r	8ee\ 8cc#\ 8a\	.
!	!LO:TX:b:i:t=cappricioso	!
4r	8ee\ 8cc#\ 8a\	.
.	8cc#\J 8a\ 8e\	.
=28	=28	=28
4r	8e\L	.
.	8cc#\	.
4E\ 4AA\	8b\	.
.	8a\J	.
4a\ 4c#\	4ee\	.
=29	=29	=29
4E/ 4AA/	8r	.
.	8aa\L 8ee\ 8cc#\	.
8c#\	8aa\ 8ee\ 8cc#\	.
8r	8ee\ 8cc#\ 8a\	.
4r	8ee\ 8cc#\ 8a\	.
.	8cc#\J 8a\ 8e\	.
=30	=30	=30
4r	8e\L	.
.	8cc#\	.
4E/ 4FF#/	8b\	.
.	8a\J	.
4a\ 4c#\	4ee\	.
=31	=31	=31
!	!LO:TX:t=P:problem=mixedbeam	!
4r	8d#X/L	.
.	8ccn\	.
4D#X/ 4FF#/	8b\	.
.	8a\J	.
4a\ 4cn\	4dd#X\	.
!!LO:LB:g=original
=32	=32	=32
!	!LO:TX:t=P:problem=mixedbeam	!
4r	8d#X/L	.
.	8ccn\	.
4D#X/ 4FFn/	8b\	.
.	8a\J	.
4a\ 4cn\ 4F#\	4dd#X\	.
=33	=33	=33
8E\L 8EE\	4r	.
8A\	.	.
!	!LO:TX:t=P:global:problem=znak arpeggia po akordzie	!
8F#\	4ee\: 4a\: 4c#:\	.
8E\J	.	.
4e\	4ee\: 4a\: 4c#:\	.
=34	=34	=34
8E\L	4r	.
8G#\	.	.
8F#\	4ee\: 4g#\: 4d:\	.
8E\J	.	.
4e\	4ee\: 4g#\: 4d:\	.
=35	=35	=35
4r	(4e/	.
4AA/	8cc#/)	.
.	8r	.
4a\ 4c#\	4r	.
=36	=36	=36
4r	(4cc#\	.
4a\ 4c#\	8e/)	.
.	8r	.
4AA/	4r	.
=37	=37	=37
4BB/	4e/	.
.	32qqg#/	.
4a\ 4d\	4f#/	.
4g#\ 4d\	4e/	.
=38	=38	=38
.	32qqg#/	.
4EE/	4f#/	.
4g#\ 4d\	4e/	.
4g#\ 4d\ 4C#\	4ee\	.
!!LO:PB:g=original
=39	=39	=39
4r	(4e/	.
4AA/	8cc#/)	.
.	8r	.
4a\ 4c#\	4r	.
=40	=40	=40
4r	(4cc#/	.
4a\ 4c#\	8d#X/)	.
.	8r	.
4FF#/	4r	.
=41	=41	=41
4GG#/	4g#/ 4f#/	.
.	32qqb/	.
4d#X\ 4c#\ 4G#\	4a/ 4f#/	.
4d#\ 4B#X\ 4G#\	4g#/ 4f#/	.
=42	=42	=42
!	!LO:TX:i:b:t=rall.:problem:dur=1q:ext=u:problem=text with extention lines	!
4e#X\ 4C#\	8cc#/L	.
.	8b#X/J	.
4f#\ 4D\	8bn/L	.
.	8a/J	.
8A\L 8D\	8f#/L	.
8D#X\J	8fn/J	.
=43	=43	=43
!	!LO:TX:b:i:t=à tempo	!
4G#\ 4E\	8e\L	.
.	32qqg#/	.
.	8f#\	.
4EE/	8e\	.
.	8ee\	.
*clefG2	*	*
4g#/ 4e/ 4d/	8b\	.
.	8cc#\J	.
=44	=44	=44
4e/ 4c#/	8b\L	.
.	8a\	.
*clefF4	*	*
.	32qqg#/	.
4EE/	8f#\	.
.	8e\	.
*clefG2	*	*
4a/ 4e/ 4c#/	8ee\	.
.	8e\J	.
=45	=45	=45
4b/ 4e/ 4d/	8a/L	.
.	8g#/	.
*clefF4	*	*
.	32qqg#\	.
4EE/	8f#/	.
.	8e/	.
*clefG2	*	*
4g#/ 4e/ 4d/	8ee/	.
.	8e/J	.
!!LO:LB:g=original
=46	=46	=46
!LO:TX:t=P:problem=mixedbeam	!	!
8e/L 8c#/	8a\L	.
8ee\ 8cc#\	8aa\	<
8dd#X\ 8ccn\	8ff#\	.
8ccX\ 8a\	8dd#X\	.
8a\ 8f#\	8ccn\	>
8d#X\J 8cn\	8a\J	]]
=47	=47	=47
4dn/ 4B/	8e/L	.
.	32qqg#\	.
.	8f#/	.
*clefF4	*	*
4EE/	8e/	.
.	8ee/	.
*clefG2	*	*
4g#/ 4e/ 4d/	8b/	.
.	8cc#/J	.
=48	=48	=48
4e/ 4c#/	8b/L	.
.	8a/J	.
!	!LO:TX:b:i:t=rit.	!
.	32qqg#\	.
!LO:TX:t=P:global:problem=znak arpeggia po akordzie	!	!
4ee\: 4cc#\: 4a:\	8f#/L	.
.	8e/J	.
16dd#X\: 16ccn\: 16a\: 16e:\	16aa\	.
16r;	16r;	.
8r	8r	.
=49	=49	=49
*^	*	*
8cc#/L	2.e\	8aa\L 8ee\	pp
8b#X/	.	8gg#\ 8dd#X\	.
!	!	!LO:TX:b:i:t=à tempo	!
8bn/	.	8ggn\ 8ddn\	.
8a#X/	.	8ff#\ 8cc#\	.
!	!	!LO:SIC:v:n=2:o=8ffn\ 8cc#\	!
8an/	.	8ccn	.
8g#/J	.	8ee\J 8b\	.
*v	*v	*	*
=50	=50	=50
8gn/L	8ee-X\L 8b-X\	.
8f#/	8dd\ 8a\	.
8e#X/	8cc#\ 8g#\	.
8en/	8ccn\ 8gn\	.
8d#X/	8bn\ 8f#\	.
8dn/J	8b-X\J 8fn\	.
*clefF4	*	*
=51	=51	=51
8c#\L 8E\	8a\L 8e\	.
8cn\J	8f#\J 8d#X\	.
8c#X\L	8a\L 8e\	.
!!LO:LB:g=original
!LO:TX:t=P:problem=łamanie linii w takcie	!LO:TX:t=P:problem=łamanie linii w takcie	!
8cn\J	8f#\J 8d#\	.
8c#X\L	8a\L 8e\	.
8cn\J	8f#\J 8d#X\	.
=52	=52	=52
4B\ 4E\	4a\ 4fn\ [4dn\	.
8e\	8ee\ 8g#\ 8d\]	.
8r	8r	.
4EE/	4r	.
=53	=53	=53
(4E\ 4AA\	8r	f
.	8aa\L 8ee\ 8cc#\	>
8c#\)	8aa\ 8ee\ 8cc#\	.
8r	8ee\ 8cc#\ 8a\	.
4r	8ee\ 8cc#\ 8a\	]
.	8cc#\J 8a\ 8e\	.
=54	=54	=54
(4c#\ 4AA\	8r	.
.	8cc#/L 8a/ 8e/	>
8E\)	8cc#/ 8a/ 8e/	.
8r	8a/ 8e/ 8c#/	.
4r	8a/ 8e/ 8c#/	]]
.	8e/J 8c#/ 8A/	.
=55	=55	=55
4E\ 4BB\	8r	.
.	8e/L 8d/ 8G#/	.
.	.	<
4F#\	8e/ 8d/ 8G#/	.
.	8g#/ 8e/ 8d/	.
4E\	8g#/ 8e/ 8d/	.
.	8dd/J 8g#/ 8e/	[
=56	=56	=56
4F#\ 4EE\	8r	.
.	8dd\L 8g#\ 8e\	<
4E\	8dd\ 8g#\ 8e\	.
.	8ee\ 8dd\ 8g#\	.
4e\	8ee\ 8dd\ 8g#\	.
.	8gg#\J 8ee\ 8dd\	[[
=57	=57	=57
4E\ 4AA\	8r	.
.	8aa\L 8ee\ 8cc#\	.
8c#\	8aa\ 8ee\ 8cc#\	.
8r	8ee\ 8cc#\ 8a\	.
4r	8ee\ 8cc#\ 8a\	.
.	8cc#\J 8a\ 8e\	.
!!LO:LB:g=original
=58	=58	=58
4c#\ 4AA\	8r	.
.	8cc#\L 8a\ 8d#X\	.
8D#X\	8cc#\ 8a\ 8d#\	.
8r	8a\ 8d#\ 8c#\	.
4r	8a\ 8d#\ 8c#\	.
.	8f#\ 8d#\J 8c#\	.
=59	=59	=59
4G#\ 4GG#\	8r	.
.	8g#/L 8f#/ 8B#X/	.
32qqB/	.	.
4A\	8g#/ 8f#/ 8B#/	.
.	8b#X/ 8g#/ 8f#/	.
4G#\	8b#/ 8g#/ 8f#/	.
.	8ff#/J 8b#/ 8g#/	.
=60	=60	=60
4A\ 4C#\	8r	.
.	8ee\L 8cc#\ 8g#\	.
4G#\	8ee\ 8cc#\ 8g#\	.
.	8gg#\ 8ee\ 8cc#\	.
4c#\	8gg#\ 8ee\ 8cc#\	.
.	8ccc#\J 8gg#\ 8ee\	.
=61	=61	=61
4E\ 4AA\	8r	.
.	8aa\L 8ee\ 8cc#\	>
8c#\	8aa\ 8ee\ 8cc#\	.
8r	8ee\ 8cc#\ 8a\	.
4r	8ee\ 8cc#\ 8a\	.
.	8cc#\J 8a\ 8e\	]
=62	=62	=62
4r	8e\L	.
.	8cc#\	.
4E\ 4AA\	8b\	.
.	8a\J	.
4a\ 4c#\	4ee\	.
=63	=63	=63
4E\ 4AA\	8r	.
.	8aa\L 8ee\ 8cc#\	>
8c#\	8aa\ 8ee\ 8cc#\	.
8r	8ee\ 8cc#\ 8a\	.
4r	8ee\ 8cc#\ 8a\	.
.	8cc#\J 8a\ 8e\	]
!!LO:LB:g=original
=64	=64	=64
4r	8e\L	.
.	8cc#\	.
!	!LO:TX:t=cres…en do:ext2=ut:ext3=s:problem=dynamics with extention lines	!LO:HP:t=cres…en do
4E\ 4FF#\	8b\	<
.	8a\J	.
4a\ 4c#\	4ee\	.
=65	=65	=65
4r	8d#X\L	.
.	8ccn\	.
4D#X\ 4FF#\	8b\	.
.	8a\J	.
4a\ 4cn\	4dd#X\	[
=66	=66	=66
!	!	!LO:DY:rj:t=p.
4r	8d#X\L	p
.	8ccn\	.
4D#X\ 4FF#\	8b\	.
.	8a\J	.
4a\ 4B\	4dd#X\	.
=67	=67	=67
4B\ 4E\	8r	pp
.	8eee\L 8bb\ 8gg#\	.
8g#\	8eee\ 8bb\ 8gg#\	.
8r	8bb\ 8gg#\ 8ee\	.
4r	8bb\ 8gg#\ 8ee\	.
.	8gg#\J 8ee\ 8b\	.
=68	=68	=68
4r	8b\L	.
.	8gg#\	.
4B\ 4E\	8ff#\	.
.	8ee\J	.
*clefG2	*	*
4ee\ 4g#\	4bb\	.
*clefF4	*	*
=69	=69	=69
4B\ 4C#\	8r	.
.	8eee\L 8bb\ 8gg#\	.
8g#\	8eee\ 8bb\ 8gg#\	.
8r	8bb\ 8gg#\ 8ee\	.
4r	8bb\ 8gg#\ 8ee\	.
.	8gg#\J 8ee\ 8b\	.
=70	=70	=70
4r	8b\L	.
.	8gg#\	.
!LO:TX:t=P:4\right:problem	!	!
4B\ 4C#\	8ff#\	.
.	8ee\J	.
*clefG2	*	*
!LO:TX:t=P:4\right:problem	!	!
4ee\ 4g#\	4bb\	.
!!LO:LB:g=original
=71	=71	=71
4r	8a#X\L	<
.	8ggn\	.
*clefF4	*	*
4A#X\ 4C#\	8ff#\	.
.	8ee\J	.
*clefG2	*	*
4ee\ 4gn\	4aa#X\	.
*clefF4	*	*
=72	=72	=72
4r	8a#X\L	.
.	8ggn\	.
4A#X\ 4Cn\	8ff#\	.
.	8ee\J	.
*clefG2	*	*
4ee\ 4fn#\	4aa#X\	[
*clefF4	*	*
=73	=73	=73
4F#\ 4BB\	8r	f
.	8bb\L 8ff#\ 8dd#X\	.
8d#X\	8bb\ 8ff#\ 8dd#\	.
8r	8ff#\ 8dd#\ 8b\	.
4r	8ff#\ 8dd#\ 8b\	.
.	8dd#\J 8b\ 8f#\	.
*clefG2	*	*
=74	=74	=74
8d#X/L	4b\	.
8f#/	.	.
8e/	4b\	.
8d#/	.	.
8c#/	4b\ 4a\ 4e\	.
8cn/J	.	.
*clefF4	*	*
=75	=75	=75
!LO:TX:t=P:4\right:problem	!	!
4B\ 4F#\ 4BB\	8b\L 8a\ 8d#X\	<
.	8bb\ 8ff#\ 8dd#X\	.
8d#X\	8bb\ 8ff#\ 8dd#\	.
8r	8ff#\ 8dd#\ 8b\	.
4r	8ff#\ 8dd#\ 8b\	.
.	8dd#\J 8b\ 8f#\	.
*clefG2	*	*
=76	=76	=76
8d#X/L	4b\	.
8a/	.	.
8g#/	4b\	.
8f#/	.	.
8e/	4b#X\ 4g#\ 4f#\	.
8d#/J	.	.
*clefF4	*	*
!!LO:PB:g=original
=77	=77	=77
(4G#\ 4C#\	8cc#\L 8g#\ 8e\	.
.	8ccc#\ 8gg#\ 8ee\	.
8e\)	8ccc#\ 8gg#\ 8ee\	.
8r	8gg#\ 8ee\ 8cc#\	.
4r	8gg#\ 8ee\ 8cc#\	<
.	8ee\J 8cc#\ 8g#\	.
*clefG2	*	*
=78	=78	=78
4cc#/ 4g#/ 4c#/	8ee\L 8e\	.
.	8dd\J	.
4a#X/ 4f#/ 4F#/	8cc#\L 8e\	<
.	8ccn\J	.
4an/ 4f#/ 4B/	8b\L 8d#X\	.
.	8cc#X\J	.
*clefF4	*	*
=79	=79	=79
(4B\ 4E\	8b\L 8g#\ 8e\	.
.	8eee\ 8bb\ 8gg#\	.
8e\)	8eee\ 8bb\ 8gg#\	.
8r	8bb\ 8gg#\ 8ee\	.
4r	8bb\ 8gg#\ 8ee\	.
.	8gg#\J 8ee\ 8b\	.
*clefG2	*	*
=80	=80	=80
4cc#/ 4g#/ 4c#/	8ee\L 8e\	.
.	8dd\J	.
4a#X/ 4f#/ 4F#/	8cc#\L 8e\	.
.	8ccn\J	.
4an/ 4f#/ 4B/	8b\L 8e\	.
.	8b#X\J	[
*clefF4	*	*
=81	=81	=81
!LO:SIC:n=1:v:o=4AX\ 4AA#X\	!	!
4A#	4cc#X/: 4gn/: 4e/: 4c#X:/	.
*clefG2	*	*
!	!	!LO:DY:rj
4gg#X\ 4cc#\	8eee\L 8aa#X\	ff
.	8ee\J	.
4ee\ 4a#X\	8ccc#\L 8ggn\	.
.	8cc#\J	.
=82	=82	=82
4cc#\ 4gn\	8aa#X\L 8ee\	.
.	8a#X\J	.
4a#X/ 4e/	8ggn\L 8cc#\	.
.	8gn\J	.
4g/ 4c#/	8ee\L 8a#\	.
.	8e\J	.
=83	=83	=83
4e/ 4A#X/	8cc#\L 8gn\	.
.	8c#\J	.
4gn/ 4c#/	8ee\L 8a#X\	.
.	8e\J	.
4e/ 4A#/	8cc#\L 8g\	.
.	8c#\J	.
*clefF4	*	*
!!LO:LB:g=original
=84	=84	=84
!	!LO:TX:b:i:t=riten.....	!
4gn\ 4c#\	8ee\L 8a#X\	.
.	8e\J	.
2e\ 2A#X\	8cc#\L 8gn\	.
.	8c#\J	.
.	8ccn\L 8g\	.
.	8cn\J	.
=85||	=85||	=85||
*k[f#c#g#d#]	*k[f#c#g#d#]	*
!	!LO:TX:a:t=Un poco piu lenté.	!LO:DY:rj:t=p.
4BB\	8b\L 8a\ 8d#\ 8A\	p
.	8ccn\J	.
4d#\ 4F#\	8cc#X\L 8a\	.
.	8dd#\J	.
4g#\ 4d#\	8ee\L 8a\	.
.	8ff#\J	.
=86	=86	=86
4E\	4.gg#\ 4.g#\	.
*clefG2	*	*
4b/ 4e/ 4G#/	.	.
.	8ff##X\	.
4b#X/ 4f#/ 4d#/ 4G#/	8gg#\L 8g#\	>
.	8dd#\J	]
=87	=87	=87
!	!LO:TX:b:i:t=rubato	!
4cc#/ 4g#/ 4c#/	8ee\L 8e\	.
.	8dd#\J	.
4a#X/ 4f#/ 4F#/	8cc#\L 8e\	.
.	8ccn\J	.
4an/ 4f#/ 4B/	8b\L 8d#\	.
.	8cc\J	.
=88	=88	=88
*	*2\right	*
4E/	2b\ 2e\	.
4g#/ 4e/ 4G#/	.	.
4g#/ 4e/ 4G#/	4b#X\ 4f#X\	.
*clefF4	*	*
=89	=89	=89
!	!LO:TX:b:i:t=espressivo.	!
4C#\	8cc#\L 8e\	.
.	8ee\J	.
4g#\ 4c#\ 4G#\	8dd#\L	.
.	8cc#\J	.
4a\ 4d#\ 4B\ 4D#\	8b\L 8f#\	.
.	8ccn\J	.
!!LO:LB:g=original
=90	=90	=90
4GG#/	8b\L 8g#\	>
.	8gg#\J	]
4g#\ 4e\ 4B\ 4G#\	8ff#\L	>
.	8ee\J	]
4g#\ 4e#X\ 4dn\ 4G#\	8ee#X\L 8g#\	>
.	8bb\J	]
=91	=91	=91
4a\ 4c#\ 4A\	8cc#\L 8f#\	>
.	8aa\J	.
4AA/	8gg#\L	.
.	8ff#\J	.
4r	8cc#\L 8e\	.
.	8ccn\J	]
=92	=92	=92
4BB/	8b\L 8d#\	.
.	8a\J	.
4b\ 4d#\ 4A\	8g#\L	.
.	8f#\J	.
8c#/L	4r	.
8cn/J	.	.
=93	=93	=93
8B\L 8BB\	4r	pp
8cn\J	.	.
8c#X\L	4bb\: 4ff#\: 4b\: 4a:\	.
8d#\J	.	.
8e\L	4bb\: 4ff#\: 4b\: 4a:\	.
8f#\J	.	.
=94	=94	=94
4.g#\ 4.E\	4r	.
.	4bb\ 4ee\ 4b\	.
8f##X\	.	.
8g#\L 8G#\	4bb#X\ 4ff#\ 4b#X\	.
8d#\J	.	.
=95	=95	=95
8e\L 8C#\	4ccc#\ 4ee\ 4cc#\	.
8d#\J	.	.
8c#\L	4gg#\ 4ee\ 4g#\	.
8cn\J	.	.
8B\L 8D#\	4bb\ 4ff#\ 4b\ 4a\	.
8c\J	.	.
=96	=96	=96
4B\ 4E\	4eee\ 4ee\ 4g#\	<
4e\	4r	.
4f#\ 4B#X\ 4G#\	4gg#\ 4dd#\ 4g#\	[[
!!LO:LB:g=original
=97	=97	=97
!	!LO:TX:t=P:problem=mixedbeam	!
4CC#/	8e/L 8G#/	f
.	8cc#\J	.
4e\ 4G#\ 4C#\	8ee\L 8g#\	.
.	8ccc#\J	.
4f#\ 4B\ 4A\ 4D#\	8bb\L 8ff#\	.
.	8a\J	.
=98	=98	=98
4e\ 4B\ 4G#\ 4E\	8eee\L 8gg#\	.
.	8b\J	.
4r	8ee/L 8g#/	.
.	8B/J	.
4dn\ 4B\ 4G#\ 4E#X\	8ddn/L 8g#/	.
.	8B/J	.
=99	=99	=99
!	!LO:TX:t=P:problem=mixedbeam	!
4FF#/	8f#/L 8A/	.
.	8cc#\J	.
4f#\ 4c#\ 4A\ 4F#\	8ff#\L 8a\	.
.	8ccc#\J	.
4f#\ 4e\ 4A#X\ 4F#\	8ccc#\L 8ff#\	.
.	8a#X\J	.
=100	=100	=100
4d#\ 4F#\ 4BB\	8bb\L 8ff#\	.
.	8dd#\J 8an\	.
!	!LO:TX:b:i:t=ms.	!
8b>/L 8a>/	4ryy	.
8d#>/J 8B>/	.	.
8B/L 8A/	4ryy	.
8D#/J 8BB/	.	.
=101	=101	=101
!	!	!LO:DY:t=p&colon;
4BBB/	8b\L 8a\ 8d#\ 8A\	p
.	8ccn\	.
4d#\ 4F#\	8cc#X\ 8a\	.
.	8dd#\	.
4b\ 4d#\	8ee\ 8a\	.
.	8ff#\J	.
=102	=102	=102
4E\	4.gg#\ 4.g#\	.
*clefG2	*	*
4b/ 4e/ 4G#/	.	.
.	8ff##X\L	.
4b#X/ 4f#/ 4d#/ 4G#/	8gg#\ 8g#\	.
.	8dd#\J	.
!!LO:LB:g=original
=103	=103	=103
!	!LO:TX:b:i:t=ritenuto	!
4cc#/ 4g#/ 4c#/	8ee\L 8e\	.
.	8dd#\J	.
4a#X/ 4f#/ 4F#/	8cc#\L 8e\	.
.	8ccn\J	.
4an/ 4f#/ 4B/	8b\L 8d#\	.
.	8cc\J	.
*clefF4	*	*
=104	=104	=104
!	!LO:TX:b:i:t=à tempo	!
4E\	2b\ 2e\	.
4g#\ 4e\ 4G#\	.	.
4g#\ 4d#\ 4G#\	4b#X\ 4f#\	.
=105	=105	=105
4C#\	8cc#\L 8e\	.
.	8ee\J	f
!	!LO:TX:b:i:t=espressivo	!
4g#\ 4c#\ 4G#\	8dd#\L	.
.	8cc#\J	.
4a\ 4d#\ 4B\ 4D#\	8b\L 8f#\	.
.	8ccn\J	.
=106	=106	=106
4EE/	8b\L 8g#\	.
.	8gg#\	.
4b\ 4e\ 4B\ 4G#\	8ff#\	.
.	8ee\J	.
4a#X\ 4e\ 4c#\ 4Gn\	4eee\ 4aa#X\	.
=107	=107	=107
4E\	8b\L 8g#\	pp
.	8ee\	.
4g#\ 4e\ 4B\ 4G#\	8dd#\	.
.	8cc#\J	.
4a\ 4d#\ 4B\ 4An\	8b\L 8f#\	.
!	!LO:TX:b:i:t=rall	!
.	8ccn\J	.
=108	=108	=108
4E\	8b\L 8g#\	.
.	8gg#\	.
4b\ 4e\ 4B\ 4G#\	8ff#\	.
.	8ee\J	.
4a#X\ 4e\ 4c#\ 4Gn\	4eee\ 4aa#X\	.
=109	=109	=109
!	!LO:TX:b:i:t=à tempo	!LO:DY:t=p.
4GG#\	8dd#\L 8b\	p
.	8gg#\	.
*clefG2	*	*
4b/ 4g#/ 4d#/ 4B/	8ff#\	.
.	8ee\J	.
4cc#/ 4f##X/ 4d#/ 4c#/	8dd#\L 8a#X\	.
.	8ee\J	.
*clefF4	*	*
!!LO:LB:g=original
=110	=110	=110
4GG#\	8dd#\L 8b\	.
.	8bb\	.
*clefG2	*	*
4dd#/ 4g#/ 4d#/ 4B/	8aa#X\	.
.	8gg#\J	.
4ddn/ 4g#/ 4e#X/ 4B/	4ggg#\ 4dddn\	.
*clefF4	*	*
=111	=111	=111
4AA\	8a\L 8f#\	sf
.	8ddn\	.
4f#\ 4dn\ 4A\ 4F#\	8cc#\	.
.	8b\J	.
4gn\ 4c#\ 4A\ 4Gn\	8a\L 8e\	.
.	8b-X\J	.
=112	=112	=112
4DD#/	8a\L 8f#\	<
.	8ff#\	.
4a\ 4dn\ 4A\ 4F#\	8ee\	.
.	8ddn\J	.
4g#\ 4d\ 4B\ 4Fn\	4dddn\ 4gg#X\	[
=113	=113	=113
(4A\ 4D#\	8r	.
.	8dddn\L 8aa\ 8ff#\	>
8f#\)	8ddd\ 8aa\ 8ff#\	.
8r	8aa\ 8ff#\ 8ddn\	.
4r	8aa\ 8ff#\ 8dd\	]
!	!	!LO:HP:t=cresc. molto
.	8ff#\J 8dd\ 8a\	<
=114	=114	=114
4r	8a\L	.
.	8ff#\	.
4a\ 4dn\ 4A\ 4F#\	8ee\	.
.	8ddn\J	.
4g#\ 4d\ 4B\ 4Fn\	4dddn\ 4gg#\	.
=115	=115	=115
(4A\ 4D#\	8r	.
.	8dddn\L 8aa\ 8ff#\	>
8f#\)	8ddd\ 8aa\ 8ff#\	.
8r	8aa\ 8ff#\ 8ddn\	.
4r	8aa\ 8ff#\ 8dd\	.
.	8ff#\J 8dd\ 8a\	]
!!LO:PB:g=original
=116	=116	=116
4r	(4a\	<
(4f#\ 4A\	8ff#\)	.
.	8r	.
8D#\)	4r	.
8r	.	.
=117	=117	=117
4r	4a\	.
(4fn\ 4A\	8ffn\	.
.	8r	.
8D#X\)	4r	[
8r	.	.
=118	=118	=118
4r	4d#X/	>
(4A\	8ccn\	]
.	8r;	.
8FFn;/)	4r	.
8r	.	.
=119||	=119||	=119||
*k[f#c#g#]	*k[f#c#g#]	*
!LO:TX:t=P:problem=w źródle po dwukresce kasownik dźwieku d	!LO:TX:t=P:problem=w źródle po dwukresce kasownik dźwieku d	!LO:DY:rj:t=pp.
4r	(4e\	pp
4EE/	8cc#\)	.
.	8r	.
4a\ 4c#\	4r	.
=120	=120	=120
4r	(<4cc#\	.
4a\ 4c#\	8e/)	.
.	8r	.
4EE/	4r	.
=121	=121	=121
4BB/	4e/	.
.	32qqg#\	.
4a\ 4d\	4f#/	.
4g#\ 4d\	4e/	.
=122	=122	=122
.	32qqg#/	.
4EE/	4f#/	.
4g#\ 4d\	4e/	.
4g#\ 4d\ 4G#\ 4C#\	4ee\	.
!!LO:LB:g=original
=123	=123	=123
4r	(4e/	.
4AA/	8cc#/)	.
.	8r	.
4a\ 4c#\	4r	.
=124	=124	=124
4r	(4cc#\	.
4a\ 4c#\	8d#X/)	.
.	8r	.
4FF#/	4r	.
=125	=125	=125
4GG#/	4g#/ 4f#/	.
.	32qqb/	.
4d#X\ 4c#\ 4G#\	4a/ 4f#/	.
4d#\ 4B#X\ 4G#\	4g#/ 4f#/	.
=126	=126	=126
!	!LO:TX:b:i:t=rit.:dur=3e:ext=u:problem=text with extention lines	!
4e#X\ 4C#\	8cc#\L	.
.	8b#X\J	.
4f#\ 4D\	8bn\L	.
.	8a\J	.
8A\L 8D\	8f#/L	.
8D#X\J	8fn/J	.
=127	=127	=127
!	!LO:TX:b:i:t=à tempo	!
4G#\ 4E\	8e/L	.
.	32qqg#\	.
.	8f#/J	.
!	!LO:TX:t=P:problem=mixedbeam	!
4EE/	8e/L	.
.	8ee\J	.
*clefG2	*	*
4g#/ 4e/ 4dn/	8b\L	.
.	8cc#\J	.
=128	=128	=128
4e/ 4c#/	8b\L	.
.	8a\	.
*clefF4	*	*
.	32qqg#/	.
4EE/	8f#\	.
.	8e\	.
*clefG2	*	*
4a/ 4e/ 4c#/	8ee\	.
.	8e\J	.
=129	=129	=129
4b/ 4e/ 4d/	8a\L	.
.	8g#\	.
*clefF4	*	*
!LO:TX:t=P:problem=łamanie linii w takcie	!	!
.	32qqg#/	.
4EE/	8f#\	.
!	!LO:TX:t=P:problem=łamanie linii w takcie	!
.	8e\J	.
!!LO:LB:g=original
*clefG2	*	*
!LO:CL:ed	!	!
*clefF4	*	*
!LO:TX:t=P:problem=błędnie wpisany klucz G2	!LO:TX:t=P:problem=mixedbeam	!
4g#\ 4e\ 4dn\	8ee\L	.
.	8e/J	.
=130	=130	=130
8c#\L 8A\	8a\L	<
*clefG2	*	*
8ee\J 8cc#\	8aa\J	[
8dd#X\L 8ccn\	8ff#\L	>
8cc\ 8a\	8dd#X\J	.
8a\ 8f#\	8ccn\L	.
8d#X\J 8cn\	8a\J	]
=131	=131	=131
4dn/ 4B/	8e/L	.
.	32qqg#\	.
.	8f#/	.
*clefF4	*	*
4EE/	8e/	.
.	8ee/	.
*clefG2	*	*
4g#/ 4e/ 4d/	8b/	.
.	8cc#/J	.
=132	=132	=132
4e/ 4c#/	8b\L	.
.	8a\J	.
.	32qqg#/	.
4ee\ 4cc#\ 4a\	8f#\L	.
.	8e\J	.
4dd#X\ 4ccn\ 4a\ 4e;\	4aa;\	.
=133	=133	=133
*^	*	*
8cc#/L	2.e\	8aa\L 8ee\	pp
8b#X/	.	8gg#\ 8dd#X\	.
8bn/	.	8ggn\ 8ddn\	.
8a#X/	.	8ff#\ 8cc#\	.
8an/	.	8ffn\ 8ccn\	.
8g#/J	.	8ee\J 8b\	.
*v	*v	*	*
=134	=134	=134
8gn/L	8ee-X\L 8b-X\	.
8f#/	8dd\ 8a\	.
8fnX/	8cc#\ 8g#\	.
8en/	8ccn\ 8gn\	.
!	!LO:SIC:v:n=1:o=8b-\ 8f#\	!
8d#X/	8bn	.
8dn/J	8b-X\J 8fn\	.
*clefF4	*	*
!!LO:LB:g=original
=135	=135	=135
8c#\L 8E\	8a\L 8e\	.
8cn\J	8f#\J 8d#X\	.
!	!LO:TX:b:i:t=rit.:dur=2q:ext=u:problem=text with extention lines	!
8c#X\L	8a\L 8e\	.
8cn\J	8f#\J 8d#\	.
8c#X\L	8a\L 8e\	.
8cn\J	8f#\J 8d#\	.
=136	=136	=136
4B\ 4E\	4a\ 4fn\ [4dn\	.
8e\	8ee\ 8g#\ 8d\]	.
8r	8r	.
4EE/	4r	.
=137	=137	=137
!	!	!LO:DY:t=f.
(4E\ 4AA\	8r	f
!	!LO:TX:b:i:t=marcato il tema.	!
.	8aa\L 8ee\ 8cc#\	.
8c#\)	8aa\ 8ee\ 8cc#\	.
8r	8ee\ 8cc#\ 8a\	.
4r	8ee\ 8cc#\ 8a\	.
.	8cc#\J 8a\ 8e\	.
=138	=138	=138
(4c#\ 4AA\	8r	.
.	8cc#/L 8a/ 8e/	.
8E\)	8cc#/ 8a/ 8e/	.
8r	8a/ 8e/ 8c#/	.
4r	8a/ 8e/ 8c#/	.
.	8e/J 8c#/ 8A/	.
=139	=139	=139
4E\ 4BB\	8r	.
.	8e/L 8d/ 8G#/	.
4F#\	8e/ 8d/ 8G#/	.
.	8g#/ 8e/ 8d/	.
4E\	8g#/ 8e/ 8d/	.
.	8dd/J 8g#/ 8e/	.
=140	=140	=140
4F#\ 4EE\	8r	.
.	8dd\L 8g#\ 8e\	.
4E\	8dd\ 8g#\ 8e\	.
.	8ee\ 8dd\ 8g#\	.
4e\	8ee\ 8dd\ 8g#\	.
.	8gg#\J 8ee\ 8dd\	.
!!LO:LB:g=original
=141	=141	=141
4E\ 4AA\	8r	.
.	8aa\L 8ee\ 8cc#\	.
8c#\	8aa\ 8ee\ 8cc#\	.
8r	8ee\ 8cc#\ 8a\	.
4r	8ee\ 8cc#\ 8a\	.
.	8cc#\J 8a\ 8e\	.
=142	=142	=142
4c#\ 4AA\	8r	.
.	8cc#/L 8a/ 8d#X/	.
8D#X\	8cc#/ 8a/ 8d#/	.
8r	8a/ 8d#/ 8c#/	.
4r	8a/ 8d#/ 8c#/	.
.	8f#/ 8d#/J 8c#/	.
=143	=143	=143
4G#\ 4GG#\	8r	.
.	8g#/L 8f#/ 8B#X/	<
32qqB/	.	.
4A\	8g#/ 8f#/ 8B#/	.
.	8b#X/ 8g#/ 8f#/	.
4G#\	8b#/ 8g#/ 8f#/	.
.	8ff#/J 8b#/ 8g#/	.
=144	=144	=144
4A\ 4C#\	8r	.
.	8ee\L 8cc#\ 8g#\	.
4G#\	8ee\ 8cc#\ 8g#\	.
.	8gg#\ 8ee\ 8cc#\	.
4c#\	8gg#\ 8ee\ 8cc#\	.
.	8ccc#\J 8gg#\ 8ee\	[
=145	=145	=145
(4G#\ 4C#\	8r	.
!	!	!LO:DY:rj:t=pp.
.	8ccc#\L 8gg#\ 8ee#X\	pp
8e#X\)	8ccc#\ 8gg#\ 8ee#\	.
8r	8gg#\ 8ee#\ 8cc#\	.
4r	8gg#\ 8ee#\ 8cc#\	.
.	8ee#\J 8cc#\ 8g#\	.
!!LO:LB:g=original
=146	=146	=146
4e#X\ 4C#\	8r	.
.	8ee#X\L 8cc#\ 8g#\	.
8G#\	8ee#\ 8cc#\ 8g#\	.
8r	8cc#\ 8g#\ 8e#X\	.
4r	8cc#\ 8g#\ 8e#\	.
.	8g#\J 8e#\ 8c#\	.
=147	=147	=147
4G#\ 4D\	8r	.
.	8g#/L 8f#/ 8B#X/	.
4A#X\	8g#/ 8f#/ 8B#/	.
.	8b#X/ 8g#/ 8f#/	.
4G#\	8b#/ 8g#/ 8f#/	<
.	8ff#/J 8b#/ 8g#/	.
=148	=148	=148
4A#X\ 4GG#\	8r	.
.	8ff#\L 8b#X\ 8g#\	.
4G#\	8ff#\ 8b#\ 8g#\	.
.	8gg#\ 8ff#\ 8b#\	.
4g#\	8gg#\ 8ff#\ 8b#\	.
.	8bb#X\J 8gg#\ 8ff#\	[[
=149	=149	=149
4G#\ 4C#\	8r	.
.	8ccc#\L 8gg#\ 8ee#X\	>
8e#X\	8ccc#\ 8gg#\ 8ee#\	.
8r	8gg#\ 8ee#\ 8cc#\	.
4r	8gg#\ 8ee#\ 8cc#\	.
.	8ee#\J 8cc#\ 8g#\	]]
=150	=150	=150
4e#X\ 4AA#X\	8r	.
.	8ee#X\L 8cc#\ 8f##X\	.
8F##X\	8ee#\ 8cc#\ 8f##\	.
8r	8cc#\ 8f##\ 8e#X\	.
4r	8cc#\ 8f##\ 8e#\	.
.	8f##\J 8e#\ 8c#\	.
!!LO:PB:g=original
=151	=151	=151
4Gn\ 4Cn\	8r	.
.	8ccc#\L 8gg#\ 8een\	>
8e\	8ccc#\ 8gg#\ 8ee\	.
8r	8gg#\ 8ee\ 8ccn\	.
4r	8gg#\ 8ee\ 8cc\	.
.	8ee\J 8cc\ 8gn\	]
=152	=152	=152
4e\ 4AA\	8r	.
.	8ee\L 8ccn\ 8f#\	.
8F#\	8ee\ 8cc\ 8f#\	.
8r	8cc\ 8f#\ 8e\	.
4r	8cc\ 8f#\ 8e\	.
.	8f#\J 8e\ 8cn\	.
=153	=153	=153
4F#\ 4BB\	8r	.
.	8bb\L 8ff#\ 8dd#X\	.
8d#X\	8bb\ 8ff#\ 8dd#\	.
8r	8ff#\ 8dd#\ 8b\	.
4r	8ff#\ 8dd#\ 8b\	.
.	8dd#\J 8b\ 8f#\	.
=154	=154	=154
4d#X\ 4GG#\	8r	.
.	8dd\L 8b\ 8e#X\	<
8E#X\	8dd\ 8b\ 8e#\	.
8r	8ee#X\ 8dd\ 8b\	.
4r	8ee#\ 8dd\ 8b\	.
.	8bb\J 8ee#\ 8dd\	[
=155	=155	=155
4F#\ 4BB\	8r	.
.	8bb\L 8ff#\ 8dd#X\	.
8d#X\	8bb\ 8ff#\ 8dd#\	.
8r	8ff#\ 8dd#\ 8b\	.
4r	8ff#\ 8dd#\ 8b\	.
.	8dd#\J 8b\ 8f#\	.
=156	=156	=156
4dn\ 4GG#\	8r	.
!	!LO:TX:b:i:t=riten.	!
.	8ddn\L 8g#\ 8e\	.
8E\	8dd\ 8g#\ 8e\	.
8r	8ee\ 8dd\ 8g#\	.
4r	8ee\ 8dd\ 8g#\	.
.	8gg#\J 8ee\ 8dd\	.
!!LO:LB:g=original
=157	=157	=157
!	!LO:TX:b:i:t=à tempo	!
(4E\ 4AA\	8r	.
.	8aa\L 8ee\ 8cc#\	.
8c#\)	8aa\ 8ee\ 8cc#\	.
8r	8ee\ 8cc#\ 8a\	.
4r	8ee\ 8cc#\ 8a\	.
.	8cc#\J 8a\ 8e\	.
=158	=158	=158
(4c#\ 4AA\	8r	.
.	8cc#/L 8a/ 8e/	.
8E\)	8cc#/ 8a/ 8e/	.
8r	8a/ 8e/ 8c#/	.
4r	8a/ 8e/ 8c#/	.
.	8e/J 8c#/ 8A/	.
=159	=159	=159
4E\ 4BB\	8r	.
.	8e/L 8d/ 8G#/	.
4F#\	8e/ 8d/ 8G#/	.
.	8g#/ 8e/ 8d/	.
4E\	8g#/ 8e/ 8d/	.
.	8dd/J 8g#/ 8e/	.
=160	=160	=160
4F#\ 4EE\	8r	.
.	8dd\L 8g#\ 8e\	.
4E\	8dd\ 8g#\ 8e\	.
.	8ee\ 8dd\ 8g#\	.
4e\	8ee\ 8dd\ 8g#\	.
.	8gg#\J 8ee\ 8dd\	.
=161	=161	=161
(4E\ 4AA\	8r	.
.	8aa\L 8ee\ 8cc#\	>
8c#\)	8aa\ 8ee\ 8cc#\	.
8r	8ee\ 8cc#\ 8a\	.
4r	8ee\ 8cc#\ 8a\	]
.	8cc#\J 8a\ 8e\	.
=162	=162	=162
8E\L 8EE\	4r	<
8Fn\	.	.
8F#X\	4ee\ 4b\ 4e\ 4d\	.
8G#\	.	.
8A\	4ee\ 4b\ 4e\ 4d\	.
8B\J	.	.
!!LO:LB:g=original
=163	=163	=163
4E\ 4AA\	8r	.
.	8aa\L 8ee\ 8cc#\	.
8c#\	8aa\ 8ee\ 8cc#\	.
8r	8ee\ 8cc#\ 8a\	.
4r	8ee\ 8cc#\ 8a\	.
.	8cc#\J 8a\ 8e\	.
=164	=164	=164
8F#\L 8FF#\	4r	.
8Gn\	.	.
!	!LO:TX:t=cres:ext=ud:problem=dynamics with extention lines	!LO:HP:t=cres
8G#X\	4ff#\ 4cc#\ 4f#\ 4e\	<
8A#X\	.	.
8B\	4ff#\ 4cc#\ 4f#\ 4e\	.
8c#\J	.	.
=165	=165	=165
4F#\ 4BB\	8r	.
.	8bb\L 8ff#\ 8dd\	.
8d\	8bb\ 8ff#\ 8dd\	.
8r	8ff#\ 8dd\ 8b\	.
4r	8ff#\ 8dd\ 8b\	.
.	8dd\J 8b\ 8f#\	.
=166	=166	=166
8A\L 8AA\	4r	.
8B-X\	.	.
8Bn\	4aa\ 4ee\ 4a\ 4gn\	.
8c#\	.	.
8d\	4aa\ 4ee\ 4a\ 4g\	.
8e\J	.	[[
=167	=167	=167
4.f#\ 4.D^^\	4r	.
.	4aa\ 4dd\ 4a\	.
8c#\	.	.
4d\	4aa\ 4dd\ 4a\	.
=168	=168	=168
4.fn\ 4.D^^\	4r	.
.	4aa\ 4dd\ 4a\	.
8c#\	.	.
4d\	4aa\ 4ffn\ 4dd\ 4a\	.
!!LO:LB:g=original
=169	=169	=169
!	!	!LO:DY:rj:t=f.
8c#/L 8EE/	4r	f
8B/J	.	.
4AM</	2ee\ 2a\ 2c#\	.
8G#/L	.	.
8F#/J	.	.
=170	=170	=170
8E\L	4dd#X\ 4a\ 4cn\	.
8F#\	.	.
8A\	4r	.
8cn\J	.	.
4d#X\	4r	.
=171	=171	=171
!	!	!LO:DY:t=pp.
8E\L 8EE\	4r	pp
8Fn\	.	.
8F#X\	4ee\ 4b\ 4e\ 4d\	.
8G#\	.	.
8A\	4ee\ 4b\ 4e\ 4d\	.
8B\J	.	.
=172	=172	=172
4.c#\ 4.AA\	4r	.
.	4ee\ 4a\ 4e\	.
8B#X\L	.	.
8c#\ 8C#\	4ee#X\ 4b\ 4e#X\	.
8G#\J	.	.
=173	=173	=173
8A\L 8FF#\	4ff#\ 4a\ 4f#\	.
8G#\	.	.
8F#\	4cc#\ 4a\ 4c#\	.
8Fn\	.	.
8E\ 8GG#\	4ee\ 4b\ 4e\ 4d\	.
8F\J	.	.
=174	=174	=174
(4E/ 4AA/	4aa'\ 4a'\ 4c#'\	.
8c#'\)	4r	.
8r	.	.
4B\ 4E#X\	4cc#\ 4g#\ 4c#\	.
=175	=175	=175
4FF#/	8a\L 8c#\	.
.	8ff#\J	.
4a\ 4c#\ 4F#\	8aa\L 8cc#\	<
.	8fff#\J	.
4b\ 4e\ 4d\ 4G#\	8eee\L 8bb\	.
.	8dd\J	[
=176	=176	=176
4cc#\ 4e\ 4c#\ 4A\	8aaa\L 8ccc#\	>
.	8ee\J	.
4r	8aa\L 8cc#\	.
.	8e\J	]
4gn\ 4e\ 4c#\ 4A#X\	8ggn\L 8cc#\	.
.	8e\J	.
=177	=177	=177
4BB\	8b\L 8d\	.
.	8ff#\J	<
*clefG2	*	*
4b/ 4f#/ 4d/ 4B/	8bb\L 8dd\	.
.	8fff#\J	.
4b/ 4a/ 4d#X/ 4B/	8fff#\L 8bb\	.
.	8dd#X\J	[[
*clefF4	*	*
=178	=178	=178
*	*^	*
4g#\ 4d\ 4G#\ 4E\	8eee\L 8bb\	4b\	>
.	8gg#\J 8ddn\	.	.
4r	8ee\L 8b\	2ryy	.
.	8g#\J 8d\	.	]
8g#\L 8d\ 8G#\	4ryy	.	.
8E\J	.	.	.
*	*v	*v	*
=179	=179	=179
8E\L 8EE\	4r	p
8Fn\	.	.
8F#X\	4ee\ 4b\ 4e\ 4d\	.
8G#\	.	.
8A\	4ee\ 4b\ 4e\ 4d\	.
8B\J	.	.
=180	=180	=180
4.c#\ 4.AA\	4r	.
.	4ee\ 4a\ 4e\	.
8B#X\L	.	.
8c#\ 8C#\	4ee#X\ 4b\ 4e#X\	.
8G#\J	.	.
=181	=181	=181
8A\L 8FF#\	4ff#\ 4a\ 4f#\	.
8G#\J	.	.
8F#\L	4cc#\ 4a\ 4c#\	.
8Fn\J	.	.
8E\L 8GG#\	4ee\ 4b\ 4e\ 4d\	.
8F\J	.	.
!!LO:LB:g=original
=182	=182	=182
4E/ 4AA/	4aa\ 4a\ 4c#\	.
8c#\	4r	.
8r	.	.
4B\ 4E#X\	4cc#\ 4g#\ 4c#\	.
=183	=183	=183
4FF#\	8a\L 8c#\	.
.	8ff#\J	.
4a\ 4c#\ 4F#\	8aa\L 8cc#\	.
.	8fff#\J	.
4b\ 4e\ 4d\ 4G#\	8eee\L 8bb\	.
.	8dd\J	.
*clefG2	*	*
=184	=184	=184
4cc#/ 4e/ 4c#/ 4A/	8aaa\L 8ccc#\	.
!	!LO:TX:t=cresc__en__do.:ext2=ud:problem=dynamics with extention lines	!LO:HP:t=cresc__en__do.
.	8ee\J	<
!	!LO:TX:b:i:t=ms	!
8aa>/L 8cc#>/	4ryy	.
8e>/J	.	.
4r	8cc#\L	.
.	8e\J	.
*clefF4	*	*
=185	=185	=185
4FF#\	8a\L 8c#\	.
.	8ff#\J	.
4a\ 4c#\ 4F#\	8aa\L 8cc#\	.
.	8fff#\J	.
4b\ 4e\ 4d\ 4G#\	8eee\L 8bb\	.
.	8dd\J	.
*clefG2	*	*
=186	=186	=186
4cc#/ 4e/ 4c#/ 4A/	8aaa\L 8ccc#\	.
.	8ee\J	[
4r	8aa\L 8cc#\	.
.	8e\J	.
*clefF4	*	*
8c#\L	4ryy	.
8E\J	.	.
!!LO:PB:g=original
=187	=187	=187
!	!	!LO:DY:t=pp.
4AA/	8aaa\L 8ccc#\	pp
.	8ee\J	.
!LO:TX:a:i:t=ms	!	!
8aa>/L 8cc#>/	4ryy	.
8e>/J	.	.
4r	8aa\L 8cc#\	.
.	8e\J	.
=188	=188	=188
8a\L 8c#\	4r	.
8E\J	.	.
!	!LO:TX:b:i:t=md	!
4ryy	8a</L 8c#</	.
.	8E</J	.
8A\L 8C#\	4r	.
8EE\J	.	.
=189	=189	=189
8AAA\L	8r	.
!	!LO:TX:t=P:problem=mixedbeam	!
8C#\ 8AA\	8c#</L 8A</ 8E</	.
8E\ 8C#\	8e</ 8c#</ 8A</	.
8A\ 8E\	8a\J 8e\ 8c#\	.
8c#\ 8A\	8cc#\L 8a\ 8e\	.
8e\J 8c#\	8ee\J 8cc#\ 8a\	.
*clefG2	*	*
=190	=190	=190
8a\L 8e\	8aa\L 8ee\ 8cc#\	.
8cc#\ 8a\	8ccc#\ 8aa\ 8ee\	.
8ee\ 8cc#\	8eee\J 8ccc#\ 8aa\	.
*	*8va	*
8aa\ 8ee\	8aaa\L 8eee\ 8ccc#\	.
8ccc#\ 8aa\	8cccc#\ 8aaa\ 8eee\	.
8eee\J 8ccc#\	8eeee\J 8cccc#\ 8aaa\	.
=191	=191	=191
4aaa\ 4eee\	4aaaa\ 4eeee\ 4cccc#\	.
*	*X8va	*
!	!LO:TX:a:i:t=loc	!
4r	4r	.
4r	4r	.
*clefF4	*	*
=192	=192	=192
*^	*	*
!	!	!LO:TX:t=P:problem=arpeggio przez 2 systemy	!
!	!	!LO:TX:a:t=ms.	!
4c#:\ 4E\ 4AA\	4aa>:/	4ee\ 4cc#\ 4a\ 4e\	.
4r	4r	2ryy	.
4r	4r	.	.
*v	*v	*	*
=193	=193	=193
4AA/ 4AAA/	4A</	.
4AA/ 4AAA/	4A</	.
!	!LO:TX:b:i:t=Fine._	!
4r	4ryy	.
==	==	==
*-	*-	*-
!!!RDF**kern: > = above
!!!RDF**kern: < = below
!!!EED: Andrzej Borzym
!!!EEV: 2021-05-18
!!!ENC: Anastazja Marusiak
!!!END: 2021-04-23
